Adwaita++/actions/22/kstars_cbound.svg

<svg height="22" viewBox="0 0 22 22" width="22" xmlns="http://www.w3.org/2000/svg">
  <path d="m5-.21289062v.21289062a5 5 0 0 1 -.0839844.88476562 5 5 0 0 1 -.1113281.48437498 5 5 0 0 1 -.1621094.4746094 5 5 0 0 1 -2.5976562 2.7070312 5 5 0 0 1 -.4550781.1796876 5 5 0 0 1 -.0097657 0 5 5 0 0 1 -.0117187 0 5 5 0 0 1 -.4550782.1269531 5 5 0 0 1 -.015625 0 5 5 0 0 1 -1.0976562.0996093v1a6 6 0 0 0 1.4140625-.1757812l.9511719 2.8515625c-.7658.1-1.5612344.3007813-2.3652344.3007813v.6621093c1.6837.0001 3.3324812-.4143 4.8007812-1.1875l.6699219 1.0527344.5371094.8417965a12 12 0 0 0 .84375-.5351559l-.0039063-.0097656c2.0739001-1.4466 3.6933438-3.5391937 4.5273438-6.0585937l2.154297.6152343.740234.2480469c.47482-1.4753.727959-3.0805656.730469-4.63476563h-1c-.0037 1.11640003-.154551 2.26227503-.425781 3.35937503l-7.6933596-2.1992188a6 6 0 0 0 .1191406-1.30078122zm.609375 2.33593752 4.808594 1.375c-.7645303 2.2794-2.230569 4.1752875-4.105469 5.4921875l-.6484375-1.0195313-.4238281-.6679687a9 9 0 0 1 -.6992188.4511718c-.39465.2321-.8076087.42455-1.2304687.59375l-.9453125-2.8359374a6 6 0 0 0 3.2441406-3.3886719zm3.5136719 5.6660156a12 12 0 0 1 -.6816407.7324219l1.4511719 1.3476562c-2.614 2.6230004-6.1622781 4.1277594-9.8925781 4.1308594v1c4.0072-.01 7.8163875-1.631584 10.617188-4.458984l2.208984 2.052734a18 18 0 0 1 -4.6367189 3.40625h2.0195309a19 19 0 0 0 3.345704-2.728516l.009765.009766a19 19 0 0 0 .681641-.732422h-.00586a19 19 0 0 0 1.759766-2.298828v-2.0390625a18 18 0 0 1 -2.507812 3.6406245l-2.179688-2.0253901-.726562-.6738281-1.4628911-1.359375z" fill="#444" transform="translate(3 3)"/>
</svg>

<svg xmlns="http://www.w3.org/2000/svg" width="22" height="22" viewBox="0 0 22 22">
 <defs>
  <style id="current-color-scheme" type="text/css">
   .ColorScheme-Text { color:#444444; } .ColorScheme-Highlight { color:#4285f4; }
  </style>
 </defs>
 <path style="fill:currentColor" class="ColorScheme-Text" d="M 5 -0.21289062 L 5 0 A 5 5 0 0 1 4.9160156 0.88476562 A 5 5 0 0 1 4.8046875 1.3691406 A 5 5 0 0 1 4.6425781 1.84375 A 5 5 0 0 1 2.0449219 4.5507812 A 5 5 0 0 1 1.5898438 4.7304688 A 5 5 0 0 1 1.5800781 4.7304688 A 5 5 0 0 1 1.5683594 4.7304688 A 5 5 0 0 1 1.1132812 4.8574219 A 5 5 0 0 1 1.0976562 4.8574219 A 5 5 0 0 1 0 4.9570312 L 0 5.9570312 A 6 6 0 0 0 1.4140625 5.78125 L 2.3652344 8.6328125 C 1.5994344 8.7328125 0.804 8.9335938 0 8.9335938 L 0 9.5957031 C 1.6837 9.5958031 3.3324812 9.1814031 4.8007812 8.4082031 L 5.4707031 9.4609375 L 6.0078125 10.302734 A 12 12 0 0 0 6.8515625 9.7675781 L 6.8476562 9.7578125 C 8.9215563 8.3112125 10.541 6.2186188 11.375 3.6992188 L 13.529297 4.3144531 L 14.269531 4.5625 C 14.744351 3.0872 14.99749 1.4819344 15 -0.072265625 L 14 -0.072265625 C 13.9963 1.0441344 13.845449 2.1900094 13.574219 3.2871094 L 5.8808594 1.0878906 A 6 6 0 0 0 6 -0.21289062 L 5 -0.21289062 z M 5.609375 2.1230469 L 10.417969 3.4980469 C 9.6534387 5.7774469 8.1874 7.6733344 6.3125 8.9902344 L 5.6640625 7.9707031 L 5.2402344 7.3027344 A 9 9 0 0 1 4.5410156 7.7539062 C 4.1463656 7.9860062 3.7334069 8.1784562 3.3105469 8.3476562 L 2.3652344 5.5117188 A 6 6 0 0 0 5.609375 2.1230469 z M 9.1230469 7.7890625 A 12 12 0 0 1 8.4414062 8.5214844 L 9.8925781 9.8691406 C 7.2785781 12.492141 3.7303 13.9969 0 14 L 0 15 C 4.0072 14.99 7.8163875 13.368416 10.617188 10.541016 L 12.826172 12.59375 A 18 18 0 0 1 8.1894531 16 L 10.208984 16 A 19 19 0 0 0 13.554688 13.271484 L 13.564453 13.28125 A 19 19 0 0 0 14.246094 12.548828 L 14.240234 12.548828 A 19 19 0 0 0 16 10.25 L 16 8.2109375 A 18 18 0 0 1 13.492188 11.851562 L 11.3125 9.8261719 L 10.585938 9.1523438 L 9.1230469 7.7929688 L 9.1230469 7.7890625 z" transform="translate(3 3)"/>
</svg>
